X:1
T:Vivo ego, dicit Dominus
T:anonymous
T:Source : Trium vocum cantiones---Nürnberg---J.Petreius---1541. Editor : André Vierendeels (11/05/16).
T:Notes : Original clefs : C1, C4, C4 Editorial accidentals above the staff Original note values have been halved Square brackets indicate ligatures
T:Vivo ego, dicit Dominus
T:©
T:©
T:©
T:©
T:©
C:anonymous
Z:©
%%score [ 1 [ 2 3 ] ]
L:1/8
Q:1/4=100
M:2/2
K:C
V:1 treble nm="Soprano" snm="S"
V:2 treble-8 nm="Tenor 1" snm="T 1"
V:3 treble-8 nm="Tenor 2" snm="T 2"
V:1
 z8 | z8 | G4 G4 | E4 G4 | G4 z2 A2 | G2 E4 A2- | AGFE F4 | E4 z2 C2- | CDEF G2 A2 | G2 C3 DEF | %10
w: ||Vi- vo|e- *|go, vi-|vo e- *||go, di-||cit Do- * * *|
 G2 A2 G2 c2- | c2 BA B4 | c6 A2- | AG F2 E4 | D2 d2 c2 B2 | A4 G4- | G4 z4 | c8 | B2 GA Bc d2- | %19
w: |||* * * mi-|nus, Do- * *|mi- nus,|_|no-|lo mor- * * * *|
 dc c4 B2 | c4 B4 | G4 A4- | A2 G2 G4- |"^#" G2 FE F4 | G3 A Bc d2 | B2 GA Bc d2- | dc c4 B2 | %27
w: * * * tem|pec- ca-|to- *|||ris, _ _ _ _|_ sed _ _ _ _|_ _ _ ma-|
 c6 BA | G3 F E3 D | C8 | D8 | C2 c4 BA | G6 FE | D2 E4 D2 | EFGA B2 c2 | B2 G2 A4 | G8- | G8- | %38
w: gis _ _|_ _ _ _|ut|vi-|vat, et _ _|_ _ _|* con- ver-|ta- * * * * *||tur.|_|
 G8 |] %39
w: |
V:2
 c4 c4 | A4 c4- | c2 B2 c2 G2 | A4 G4 | C3 D E2 F2 | C2 c3 BAG | FEDC D4 | C3 D E2 F2 | C4 z2 c2- | %9
w: Vi- vo|e- *||* go,|vi- * * *|vo e- * * *|||go, di-|
 cdef g2 c2 | z2 e4 dc | d8 | c3 d e2 f2- |"^#" fe d4 c2 | d4 e4 | f4 e4 | c2 e3 d g2- | g2 fe f4 | %18
w: * * * * * cit|Do- * *|||* * * mi-|nus, Do-|||* * * mi-|
 g4 z2 g2 | g2 fe d4 | c4 d4 | e3 d c2 A2 | B4 G4 | A8 | G4 z2 g2- | gf e2 d2 g2- | g2 fe d4 | %27
w: nus, no-|lo _ _ _|mor- tem|pec- * * ca-|to- *||ris, sed|_ _ _ ma- *||
 c4 F4 | G4 A3 B | cd e3 d c2- | c2 BA B4 | c8 | B3 A Bc d2- | d2 cB A4 | B2 e2 d2 c2 | d2 e4 d2 | %36
w: gis ut|vi- * *||* * * vat,|et|_ _ _ _ _||* * * con-|ver- * *|
 e6 dc | B2 G2 c4 | B8 |] %39
w: * ta- *||tur.|
V:3
 z8 | z8 | z8 | z8 | c8 | c8 | A8 | c8 | c8 | c4 c4 | c8 | G8 | A8 | A8 | z8 | z4 c4- | c4 B4 | %17
w: ||||Vi-|vo|e-||go,|di- cit|Do-|mi-||nus,||no-|* lo|
 A8 | G8- | G8 | A4 G4 | E4 F4 | E8 | D8 | G8 | G8 | G8 | A8 | B4 c4 | A8 | G4 G4 | E4 F4 | G4 G4 | %33
w: mor-|tem|_|pec- ca-|to- *|ris,|_|sed|ma|gis|_||ut|vi- vat,|et _|con- ver|
 G4 F4 | E3 F G2 A2 | G2 E2 F4 | E8- | E8- | E8 |] %39
w: ta- *|||tur.|_||

